www/assets/icons/door_front.svg

<svg xmlns="http://www.w3.org/2000/svg" width="24" height="24" viewBox="0 0 24 24" fill='currentColor'><path d="M19 19V5c0-1.1-.9-2-2-2H7c-1.1 0-2 .9-2 2v14H3v2h18v-2zm-4-6h-2v-2h2z"/></svg>

<svg width="24" height="24" viewBox="0 0 24 24" xmlns="http://www.w3.org/2000/svg" fill='currentColor'><path d="M19 19V5C19 3.9 18.1 3 17 3H7C5.9 3 5 3.9 5 5V19H3V21H21V19H19ZM15 13H13V11H15V13Z"/></svg>
